X: 472	% 133
T: After the Ball
O: Lerned from my mother at 3 years of age
S: Viola Ruth "Pioneer Western Folk Tunes" 1948 p.47 #2
R: waltz
Q: "Waltz"
Z: 2019 John Chambers <jc:trillian.mit.edu>
M: 3/4
L: 1/8
K: C
V: 1 name="133"
[|\
c6 | (e4c2) | B6 | G6 | (A4A2) | (B4c2) | G6- | G6 ||\
A6 | (B4c2) | G6 | c6 | A6 | (B4c2) | d6- | d6 ||
E6 | (G4E2) | A6 | E6 | (e4e2) | (f4e2) | A6- | A4z2 ||\
B4A2 | (B4c2) | e6 | G6 | d6 | (B4G2) | c6- | c4z2 ||
||\
e2("^^"g2ze) | c4(AB) | c6 | G6 | (e2"^^"g2)ze | (c2B2A2) | B6- | B6 ||\
!gliss!f2"^^"a2ze | (d2e2f2) | e6 | G6 | d4(ed) | (B2A2G2) | g6- | g6 ||
(e2"^^"g2)ze | c4AB | c6 | G6 | (F2A2c2) | (a4g2) | f6- | f4z2 ||\
(g2Md2Md2) | (d2e2f2) | e6 | G6 | d6 | (B4G2)|[1 c6- | c6 |][2 (!gliss!c2e2g2) | Hc'6 |]
%%text N B I have never seen this by note. History says it was written in 1892 the year I was born.
